X:1
T:[ID 4-23r]
T:[ID 4-23r]
T:Bezeichnung standardisiert: K\"onig von Preu\ssen; Menuet
T:Urheber unbekannt Datum in der hier transkribierten schriftlichen Quelle: 1767
C:Urheber unbekannt
C:Datum in der hier transkribierten schriftlichen Quelle: 1767
L:1/8
M:3/4
K:G
V:1 treble 
V:1
 g2 d2 de | d3 c B2 | G6 | B2 BABc | B3 cde | d2 c2 BG | A6 :: A2 AG A2 | B2 BA B2 | c2 cBcA | %10
 d4 (3efg | g2 f2 e2 | d3 c B2 | c2 B2 AF | G6 :| %15

